app/public/logos/wsteth.svg

<svg xmlns="http://www.w3.org/2000/svg" width="350pt" height="350pt" style="isolation:isolate" viewBox="0 0 350 350"><defs><clipPath id="a"><path d="M0 0h350v350H0z"/></clipPath></defs><g clip-path="url(#a)"><path d="M0 0h350v350H0z" style="fill:#fefeff"/><radialGradient id="b" cx=".5" cy=".5" r="1" fx=".5" fy="1" gradientTransform="matrix(214.286 0 0 165.171 67.857 159.829)" gradientUnits="userSpaceOnUse"><stop offset="20.369%" style="stop-color:#56f2ff"/><stop offset="100%" style="stop-color:#4a8cea"/></radialGradient><path fill="url(#b)" d="m174.988 210.03-87.882-50.199-2.4 3.681c-27.068 41.522-21.023 95.902 14.534 130.74 41.841 40.997 109.679 40.997 151.52 0 35.557-34.838 41.602-89.218 14.534-130.74l-2.401-3.683z"/><g opacity=".6"><radialGradient id="c" cx=".5" cy=".5" r="1" fx=".5" fy=".5" gradientTransform="matrix(151.457 0 0 86.58 99.345 97.898)" gradientUnits="userSpaceOnUse"><stop offset="0%" style="stop-color:#eeff83"/><stop offset="68.96%" style="stop-color:#5699ec"/></radialGradient><path fill="url(#c)" d="m175.101 97.898-75.756 43.317 75.756 43.263 75.701-43.263z"/></g><radialGradient id="d" cx=".5" cy=".5" r="1" fx=".5" fy=".5" gradientTransform="matrix(175.746 0 0 100.874 87.172 109.198)" gradientUnits="userSpaceOnUse"><stop offset="0%" style="stop-color:#56f2ff"/><stop offset="100%" style="stop-color:#5699ec"/></radialGradient><path fill="url(#d)" d="m175.201 109.198-88.029 50.651 87.832 50.223 87.914-50.239z"/><linearGradient id="e" x1=".5" x2=".5" y1="0" y2="1" gradientTransform="matrix(75.756 0 0 159.421 99.345 25.057)" gradientUnits="userSpaceOnUse"><stop offset="37.718%" style="stop-color:#ffe336"/><stop offset="100%" stop-opacity=".7" style="stop-color:#13c0b6"/></linearGradient><path fill="url(#e)" d="M175.101 25.057 99.345 141.215l75.756 43.263z"/><linearGradient id="f" x1=".5" x2=".5" y1="0" y2="1" gradientTransform="matrix(75.763 0 0 159.486 175.096 25)" gradientUnits="userSpaceOnUse"><stop offset="40.882%" style="stop-color:#ff7f72"/><stop offset="100%" stop-opacity=".7" style="stop-color:#2978ef"/></linearGradient><path fill="url(#f)" d="m175.096 184.486 75.763-43.27L175.1 25z"/></g></svg>

<?xml version="1.0" encoding="UTF-8" standalone="no"?><!-- Generator: Gravit.io --><svg xmlns="http://www.w3.org/2000/svg" xmlns:xlink="http://www.w3.org/1999/xlink" style="isolation:isolate" viewBox="0 0 350 350" width="350pt" height="350pt"><defs><clipPath id="_clipPath_gOr378DuzrwQljELn3JNoZxRNyMdgDFP"><rect width="350" height="350"/></clipPath></defs><g clip-path="url(#_clipPath_gOr378DuzrwQljELn3JNoZxRNyMdgDFP)"><rect width="350" height="350" style="fill:rgb(254,254,255)"/><g><g><radialGradient id="_rgradient_6" fx="0.49955258962759896" fy="1.000457623691427" cx="0.5" cy="0.5" r="1" gradientTransform="matrix(214.286,0,0,165.171,67.857,159.829)" gradientUnits="userSpaceOnUse"><stop offset="20.3695%" stop-opacity="1" style="stop-color:rgb(86,242,255)"/><stop offset="100%" stop-opacity="1" style="stop-color:rgb(74,140,234)"/></radialGradient><path d=" M 174.988 210.03 L 87.106 159.831 L 84.706 163.512 C 57.638 205.034 63.683 259.414 99.24 294.252 C 141.081 335.249 208.919 335.249 250.76 294.252 C 286.317 259.414 292.362 205.034 265.294 163.512 L 262.893 159.829 L 174.988 210.03 Z " fill="url(#_rgradient_6)"/><g opacity="0.6"><radialGradient id="_rgradient_7" fx="0.5000019343332548" fy="0.49999661620297364" cx="0.5" cy="0.5" r="1" gradientTransform="matrix(151.457,0,0,86.58,99.345,97.898)" gradientUnits="userSpaceOnUse"><stop offset="0%" stop-opacity="1" style="stop-color:rgb(238,255,131)"/><stop offset="68.9596%" stop-opacity="1" style="stop-color:rgb(86,153,236)"/></radialGradient><path d=" M 175.101 97.898 L 99.345 141.215 L 175.101 184.478 L 250.802 141.215 L 175.101 97.898 Z " fill="url(#_rgradient_7)"/></g><radialGradient id="_rgradient_8" fx="0.5" fy="0.5" cx="0.5" cy="0.5" r="1" gradientTransform="matrix(175.746,0,0,100.874,87.172,109.198)" gradientUnits="userSpaceOnUse"><stop offset="0%" stop-opacity="1" style="stop-color:rgb(86,242,255)"/><stop offset="100%" stop-opacity="1" style="stop-color:rgb(86,153,236)"/></radialGradient><path d=" M 175.201 109.198 L 87.172 159.849 L 175.004 210.072 L 262.918 159.833 L 175.201 109.198 Z " fill="url(#_rgradient_8)"/><linearGradient id="_lgradient_26" x1="0.5" y1="0" x2="0.49999999999999983" y2="1" gradientTransform="matrix(75.756,0,0,159.421,99.345,25.057)" gradientUnits="userSpaceOnUse"><stop offset="37.7179%" stop-opacity="1" style="stop-color:rgb(255,227,54)"/><stop offset="100%" stop-opacity="0.7" style="stop-color:rgb(19,192,182)"/></linearGradient><path d=" M 175.101 25.057 L 99.345 141.215 L 175.101 184.478 L 175.101 25.057 Z " fill="url(#_lgradient_26)"/><linearGradient id="_lgradient_27" x1="0.5" y1="0" x2="0.49999999999999983" y2="1" gradientTransform="matrix(75.763,0,0,159.486,175.096,25)" gradientUnits="userSpaceOnUse"><stop offset="40.881699999999995%" stop-opacity="1" style="stop-color:rgb(255,127,114)"/><stop offset="100%" stop-opacity="0.7" style="stop-color:rgb(41,120,239)"/></linearGradient><path d=" M 175.096 184.486 L 250.859 141.216 L 175.1 25 L 175.096 184.486 Z " fill="url(#_lgradient_27)"/></g></g></g></svg>
